Icons/com_motorola_genie.svg

<svg viewBox="0 0 48 48" xmlns:xlink="http://www.w3.org/1999/xlink">
 <defs>
  <linearGradient id="0">
   <stop stop-opacity="0"/>
   <stop offset="1"/>
  </linearGradient>
  <linearGradient xlink:href="#0" id="1" gradientUnits="userSpaceOnUse" gradientTransform="translate(4e-7,-48)" y1="47" x2="0" y2="1"/>
  <clipPath id="2">
   <g transform="translate(0,-1004.3622)">
    <rect rx="4" y="1005.36" x="1" height="46" width="46" fill="#1890d0"/>
   </g>
  </clipPath>
  <clipPath id="3">
   <g transform="translate(0,-1004.3622)">
    <rect rx="4" y="1005.36" x="1" height="46" width="46" fill="#1890d0"/>
   </g>
  </clipPath>
 </defs>
 <g>
  <g transform="translate(0,-1004.3622)">
   <path d="m 5,1006.3622 c -2.216,0 -4,1.784 -4,4 l 0,37.25 c 0,2.216 1.784,4 4,4 l 38,0 c 2.216,0 4,-1.784 4,-4 l 0,-37.25 c 0,-2.216 -1.784,-4 -4,-4 l -38,0 z m -4,41.5 0,0.5 c 0,2.216 1.784,4 4,4 l 38,0 c 2.216,0 4,-1.784 4,-4 l 0,-0.5 c 0,2.216 -1.784,4 -4,4 l -38,0 c -2.216,0 -4,-1.784 -4,-4 z" opacity="0.02"/>
   <path d="m 1,1047.6122 0,0.25 c 0,2.216 1.784,4 4,4 l 38,0 c 2.216,0 4,-1.784 4,-4 l 0,-0.25 c 0,2.216 -1.784,4 -4,4 l -38,0 c -2.216,0 -4,-1.784 -4,-4 z" opacity="0.05"/>
   <rect width="46" height="46" x="1" y="1005.61" rx="4" opacity="0.1"/>
  </g>
 </g>
 <g>
  <g transform="translate(0,-1004.3622)">
   <rect rx="4" y="1005.36" x="1" height="46" width="46" fill="#7394bd"/>
  </g>
 </g>
 <g>
  <rect transform="scale(1,-1)" width="46" height="46" x="1" y="-46.998" rx="4" opacity="0.1" fill="url(#1)"/>
 </g>
 <g>
  <g clip-path="url(#2)">
   <g opacity="0.1">
    <g>
     <path d="M 25.136719 29.957031 C 25.054688 27.234375 25.714844 24.59375 28.5 22.722656 C 31.441406 20.605469 34.277344 17.957031 33.976562 14.835938 C 33.910156 11.824219 30.113281 9.46875 26.019531 9.128906 C 21.414062 8.539062 15.839844 9.996094 14.296875 13.316406 C 13.515625 14.929688 14.238281 17.828125 16.867188 17.828125 C 18.402344 17.828125 19.109375 16.910156 19.222656 16.074219 C 19.3125 15.4375 19.03125 14.871094 18.863281 14.347656 C 18.675781 13.75 19.484375 12.59375 20.367188 12.125 C 21.105469 11.730469 21.875 11.597656 21.988281 11.574219 C 24.636719 10.984375 27.277344 12.28125 28.375 13.863281 C 29.476562 15.441406 28.265625 17.835938 26.523438 20.164062 C 24.78125 22.496094 22.910156 25.140625 22.917969 27.949219 C 22.917969 29.019531 22.816406 29.382812 22.886719 29.816406 C 22.945312 30.160156 24.1875 30.121094 25.136719 29.957031 Z M 23.929688 33.621094 C 21.398438 33.496094 19.644531 36.144531 21.164062 37.832031 C 22.523438 39.695312 26.332031 39.234375 26.984375 37.125 C 27.664062 35.484375 26.03125 33.59375 23.929688 33.621094 Z M 23.929688 33.621094 "/>
    </g>
   </g>
  </g>
 </g>
 <g>
  <g clip-path="url(#3)">
   <g transform="translate(0,-1)">
    <g>
     <path d="M 25.136719 29.957031 C 25.054688 27.234375 25.714844 24.59375 28.5 22.722656 C 31.441406 20.605469 34.277344 17.957031 33.976562 14.835938 C 33.910156 11.824219 30.113281 9.46875 26.019531 9.128906 C 21.414062 8.539062 15.839844 9.996094 14.296875 13.316406 C 13.515625 14.929688 14.238281 17.828125 16.867188 17.828125 C 18.402344 17.828125 19.109375 16.910156 19.222656 16.074219 C 19.3125 15.4375 19.03125 14.871094 18.863281 14.347656 C 18.675781 13.75 19.484375 12.59375 20.367188 12.125 C 21.105469 11.730469 21.875 11.597656 21.988281 11.574219 C 24.636719 10.984375 27.277344 12.28125 28.375 13.863281 C 29.476562 15.441406 28.265625 17.835938 26.523438 20.164062 C 24.78125 22.496094 22.910156 25.140625 22.917969 27.949219 C 22.917969 29.019531 22.816406 29.382812 22.886719 29.816406 C 22.945312 30.160156 24.1875 30.121094 25.136719 29.957031 Z M 23.929688 33.621094 C 21.398438 33.496094 19.644531 36.144531 21.164062 37.832031 C 22.523438 39.695312 26.332031 39.234375 26.984375 37.125 C 27.664062 35.484375 26.03125 33.59375 23.929688 33.621094 Z M 23.929688 33.621094 " fill="#ffffff"/>
    </g>
   </g>
  </g>
 </g>
 <g>
  <g transform="translate(0,-1004.3622)">
   <path d="m 1,1043.3622 0,4 c 0,2.216 1.784,4 4,4 l 38,0 c 2.216,0 4,-1.784 4,-4 l 0,-4 c 0,2.216 -1.784,4 -4,4 l -38,0 c -2.216,0 -4,-1.784 -4,-4 z" opacity="0.1"/>
  </g>
 </g>
</svg>

<svg viewBox="0 0 48 48"><defs><linearGradient id="linearGradient3764" x1="1" x2="47" gradientUnits="userSpaceOnUse" gradientTransform="translate(-48.000001,0.00221467)"><stop stop-color="#658ab7" stop-opacity="1"/><stop offset="1" stop-color="#7394bd" stop-opacity="1"/></linearGradient><clipPath id="clipPath-009851541"><g transform="translate(0,-1004.3622)"><rect rx="4" y="1005.36" x="1" height="46" width="46" fill="#1890d0"/></g></clipPath><clipPath id="clipPath-022613465"><g transform="translate(0,-1004.3622)"><rect rx="4" y="1005.36" x="1" height="46" width="46" fill="#1890d0"/></g></clipPath></defs><g><path d="m 1 43 l 0 0.25 c 0 2.216 1.784 4 4 4 l 38 0 c 2.216 0 4 -1.784 4 -4 l 0 -0.25 c 0 2.216 -1.784 4 -4 4 l -38 0 c -2.216 0 -4 -1.784 -4 -4 z m 0 0.5 l 0 0.5 c 0 2.216 1.784 4 4 4 l 38 0 c 2.216 0 4 -1.784 4 -4 l 0 -0.5 c 0 2.216 -1.784 4 -4 4 l -38 0 c -2.216 0 -4 -1.784 -4 -4 z" opacity="0.02"/><path d="m 1 43.25 l 0 0.25 c 0 2.216 1.784 4 4 4 l 38 0 c 2.216 0 4 -1.784 4 -4 l 0 -0.25 c 0 2.216 -1.784 4 -4 4 l -38 0 c -2.216 0 -4 -1.784 -4 -4 z" opacity="0.05"/><path d="m 1 43 l 0 0.25 c 0 2.216 1.784 4 4 4 l 38 0 c 2.216 0 4 -1.784 4 -4 l 0 -0.25 c 0 2.216 -1.784 4 -4 4 l -38 0 c -2.216 0 -4 -1.784 -4 -4 z" opacity="0.1"/></g><g><rect width="46" height="46" x="-47" y="1" rx="4" transform="matrix(0,-1,1,0,0,0)" fill="url(#linearGradient3764)" fill-opacity="1"/></g><g><g clip-path="url(#clipPath-009851541)"><g opacity="0.1"><!-- color: #7394bd --><g><path d="m 25.14 29.957 c -0.082 -2.723 0.578 -5.363 3.363 -7.234 c 2.941 -2.117 5.777 -4.766 5.477 -7.887 c -0.066 -3.01 -3.863 -5.367 -7.957 -5.707 c -4.605 -0.59 -10.18 0.867 -11.723 4.188 c -0.781 1.613 -0.059 4.512 2.57 4.512 c 1.535 0 2.242 -0.918 2.355 -1.754 c 0.09 -0.637 -0.191 -1.203 -0.359 -1.727 c -0.188 -0.598 0.621 -1.754 1.504 -2.223 c 0.738 -0.395 1.508 -0.527 1.621 -0.551 c 2.648 -0.59 5.289 0.707 6.387 2.289 c 1.102 1.578 -0.109 3.973 -1.852 6.301 c -1.742 2.332 -3.613 4.977 -3.605 7.785 c 0 1.07 -0.102 1.434 -0.031 1.867 c 0.059 0.344 1.301 0.305 2.25 0.141 m -1.207 3.664 c -2.531 -0.125 -4.285 2.523 -2.766 4.211 c 1.359 1.863 5.168 1.402 5.82 -0.707 c 0.68 -1.641 -0.953 -3.531 -3.055 -3.504 m 0 0" fill="#000"/></g></g></g></g><g><g clip-path="url(#clipPath-022613465)"><g transform="translate(0,-1)"><!-- color: #7394bd --><g><path d="m 25.14 29.957 c -0.082 -2.723 0.578 -5.363 3.363 -7.234 c 2.941 -2.117 5.777 -4.766 5.477 -7.887 c -0.066 -3.01 -3.863 -5.367 -7.957 -5.707 c -4.605 -0.59 -10.18 0.867 -11.723 4.188 c -0.781 1.613 -0.059 4.512 2.57 4.512 c 1.535 0 2.242 -0.918 2.355 -1.754 c 0.09 -0.637 -0.191 -1.203 -0.359 -1.727 c -0.188 -0.598 0.621 -1.754 1.504 -2.223 c 0.738 -0.395 1.508 -0.527 1.621 -0.551 c 2.648 -0.59 5.289 0.707 6.387 2.289 c 1.102 1.578 -0.109 3.973 -1.852 6.301 c -1.742 2.332 -3.613 4.977 -3.605 7.785 c 0 1.07 -0.102 1.434 -0.031 1.867 c 0.059 0.344 1.301 0.305 2.25 0.141 m -1.207 3.664 c -2.531 -0.125 -4.285 2.523 -2.766 4.211 c 1.359 1.863 5.168 1.402 5.82 -0.707 c 0.68 -1.641 -0.953 -3.531 -3.055 -3.504 m 0 0" fill="#fff"/></g></g></g></g><g><g transform="translate(0,-1004.3622)"><path d="m 1 1043.36 0 4 c 0 2.216 1.784 4 4 4 l 38 0 c 2.216 0 4 -1.784 4 -4 l 0 -4 c 0 2.216 -1.784 4 -4 4 l -38 0 c -2.216 0 -4 -1.784 -4 -4 z" opacity="0.1"/></g></g></svg>
